arrow-bottom-left-thin-circle-outline.svg

<svg fill="currentColor" viewBox="0 0 24 24"><path d="M12 20.03c4.41 0 8.03-3.62 8.03-8.03S16.41 3.97 12 3.97 3.97 7.59 3.97 12s3.62 8.03 8.03 8.03M12 22C6.46 22 2 17.54 2 12S6.46 2 12 2s10 4.46 10 10-4.46 10-10 10m-1.88-9.53L8 10.36V16h5.64l-2.11-2.12L16.5 8.9l-1.4-1.4"/></svg>

<svg  viewBox="0 0 24 24" fill="currentColor"><path  d="M12 20.03C16.41 20.03 20.03 16.41 20.03 12C20.03 7.59 16.41 3.97 12 3.97C7.59 3.97 3.97 7.59 3.97 12C3.97 16.41 7.59 20.03 12 20.03M12 22C6.46 22 2 17.54 2 12C2 6.46 6.46 2 12 2C17.54 2 22 6.46 22 12C22 17.54 17.54 22 12 22M10.12 12.47L8 10.36V16H13.64L11.53 13.88L16.5 8.9L15.1 7.5"/></svg>
